ion/chatbubble-ellipses-sharp.svg

<svg viewBox="0 0 512 512" xmlns="http://www.w3.org/2000/svg"><path d="M475.22 206.52c-10.34-48.65-37.76-92.93-77.22-124.68v0C357.64 49.55 307.49 31.97 255.82 32 194.9 32 138 55.47 95.46 98.09 54.35 139.33 31.82 193.78 32 251.37l0-.001c0 42.22 12.39 83.51 35.65 118.76l4.35 6.05 -24 103.82 114.8-28.56s2.3.77 4 1.42c1.7.65 16.33 6.26 31.85 10.6 12.9 3.6 39.74 9 60.77 9 59.65 0 115.35-23.1 156.83-65.06C457.36 365.76 480 310.41 480 251.48h0c0-15.12-1.6-30.2-4.78-44.97ZM160 288v0c-17.68 0-32-14.33-32-32 0-17.68 14.32-32 32-32 17.67 0 32 14.32 32 32v0c0 17.67-14.33 32-32 32Zm96 0v0c-17.68 0-32-14.33-32-32 0-17.68 14.32-32 32-32 17.67 0 32 14.32 32 32v0c0 17.67-14.33 32-32 32Zm96 0v0c-17.68 0-32-14.33-32-32 0-17.68 14.32-32 32-32 17.67 0 32 14.32 32 32v0c0 17.67-14.33 32-32 32Z"/></svg>

<svg xmlns="http://www.w3.org/2000/svg" width="512" height="512" viewBox="0 0 512 512"><path d="M475.22,206.52C464.88,157.87,437.46,113.59,398,81.84A227.4,227.4,0,0,0,255.82,32C194.9,32,138,55.47,95.46,98.09,54.35,139.33,31.82,193.78,32,251.37A215.66,215.66,0,0,0,67.65,370.13L72,376.18,48,480l114.8-28.56s2.3.77,4,1.42,16.33,6.26,31.85,10.6c12.9,3.6,39.74,9,60.77,9,59.65,0,115.35-23.1,156.83-65.06C457.36,365.77,480,310.42,480,251.49A213.5,213.5,0,0,0,475.22,206.52ZM160,288a32,32,0,1,1,32-32A32,32,0,0,1,160,288Zm96,0a32,32,0,1,1,32-32A32,32,0,0,1,256,288Zm96,0a32,32,0,1,1,32-32A32,32,0,0,1,352,288Z"/></svg>
